file/doosan.svg

<svg clip-rule="evenodd" fill-rule="evenodd" stroke-linejoin="round" stroke-miterlimit="1.41421" viewBox="0 0 560 400" xmlns="http://www.w3.org/2000/svg"><g transform="matrix(2.14468 0 0 2.14468 99.8841 115.729)"><path d="m7.336 7.333h56.048v56.048h-56.048z" fill="#014da2" transform="matrix(-.3088 .9511 -.9511 -.3088 79.9087 12.6438)"/><path d="m55.124 20.534h56.044v56.048h-56.044z" fill="#009fdb" transform="matrix(.0724 .9974 -.9974 .0724 125.555 -37.8863)"/><g fill-rule="nonzero"><path d="m106.062 68.371 6.15-55.708 55.699 6.151-6.142 55.706z" fill="#00ad7e"/><path d="m100.105 36.41.163-.477c.416-1.177-.025-2.155-1.71-2.155-1.864 0-3.016.868-3.33 1.767-1.4 3.946 13.479 2.019 10.893 9.326-1.514 4.261-6.343 6.167-14.002 6.167-7.191 0-10.677-1.486-9.208-5.63l.246-.707h8.404l-.169.474c-.604 1.715.347 2.33 2.024 2.33 1.777 0 3.1-.839 3.49-1.932 1.398-3.951-12.937-1.987-10.429-9.077 1.432-4.037 5.812-6.248 13.148-6.248 7.564 0 10.12 1.872 8.604 6.162h-8.124l-.001.002v-.002zm-24.37-6.16c8.869 0 10.877 2.913 8.226 10.394-2.651 7.48-6.718 10.394-15.588 10.394-8.877 0-10.876-2.914-8.225-10.394 2.647-7.481 6.716-10.394 15.587-10.394zm-25.11 0c8.87 0 10.875 2.913 8.226 10.394-2.651 7.48-6.718 10.394-15.59 10.394-8.875 0-10.875-2.914-8.224-10.394 2.644-7.481 6.71-10.394 15.588-10.394zm-30.937 20.394h-12.606l7.083-20.005h12.605c10.044 0 8.875 4.764 7.015 10.005-1.855 5.238-4.059 10-14.097 10zm111.018 0h-9.242l.347-3.5h-6.904l-2.128 3.5h-9.249l15.211-20.005h10.928zm9.199 0h-8.124l7.088-20.005h9.711l1.237 12.329h.093l4.368-12.329h8.125l-7.088 20.005h-9.53l-1.407-12.355h-.094zm-70.286-3.139c2.668 0 3.456-1.455 5.377-6.862 1.913-5.405 2.151-6.866-.51-6.866-2.665 0-3.462 1.46-5.375 6.866-1.916 5.407-2.153 6.862.508 6.862zm-25.11 0c2.66 0 3.457-1.455 5.371-6.862 1.915-5.405 2.152-6.866-.508-6.866s-3.456 1.46-5.371 6.866c-1.914 5.407-2.151 6.862.508 6.862zm-27.413-.615h1.728c3.364 0 4.075-.84 5.994-6.247 1.918-5.405 1.791-6.252-1.572-6.252h-1.722zm105.705-12.159h-.093l-5.388 8.488h4.854z" fill="#fff"/></g></g></svg>

<?xml version="1.0" encoding="UTF-8" standalone="no"?>
<!DOCTYPE svg PUBLIC "-//W3C//DTD SVG 1.1//EN" "http://www.w3.org/Graphics/SVG/1.1/DTD/svg11.dtd">
<svg width="100%" height="100%" viewBox="0 0 560 400" version="1.1" xmlns="http://www.w3.org/2000/svg" xmlns:xlink="http://www.w3.org/1999/xlink" xml:space="preserve" xmlns:serif="http://www.serif.com/" style="fill-rule:evenodd;clip-rule:evenodd;stroke-linejoin:round;stroke-miterlimit:1.41421;">
    <g transform="matrix(2.14468,0,0,2.14468,99.8841,115.729)">
        <g transform="matrix(-0.3088,0.9511,-0.9511,-0.3088,79.9087,12.6438)">
            <rect x="7.336" y="7.333" width="56.048" height="56.048" style="fill:rgb(1,77,162);"/>
        </g>
        <g transform="matrix(0.0724,0.9974,-0.9974,0.0724,125.555,-37.8863)">
            <rect x="55.124" y="20.534" width="56.044" height="56.048" style="fill:rgb(0,159,219);"/>
        </g>
        <path d="M106.062,68.371L112.212,12.663L167.911,18.814L161.769,74.52L106.062,68.371Z" style="fill:rgb(0,173,126);fill-rule:nonzero;"/>
        <path d="M100.105,36.41L100.268,35.933C100.684,34.756 100.243,33.778 98.558,33.778C96.694,33.778 95.542,34.646 95.228,35.545C93.828,39.491 108.707,37.564 106.121,44.871C104.607,49.132 99.778,51.038 92.119,51.038C84.928,51.038 81.442,49.552 82.911,45.408L83.157,44.701L91.561,44.701L91.392,45.175C90.788,46.89 91.739,47.505 93.416,47.505C95.193,47.505 96.516,46.666 96.906,45.573C98.304,41.622 83.969,43.586 86.477,36.496C87.909,32.459 92.289,30.248 99.625,30.248C107.189,30.248 109.745,32.12 108.229,36.41L100.105,36.41L100.104,36.412L100.104,36.41L100.105,36.41ZM75.735,30.25C84.604,30.25 86.612,33.163 83.961,40.644C81.31,48.124 77.243,51.038 68.373,51.038C59.496,51.038 57.497,48.124 60.148,40.644C62.795,33.163 66.864,30.25 75.735,30.25ZM50.625,30.25C59.495,30.25 61.5,33.163 58.851,40.644C56.2,48.124 52.133,51.038 43.261,51.038C34.386,51.038 32.386,48.124 35.037,40.644C37.681,33.163 41.747,30.25 50.625,30.25ZM19.688,50.644L7.082,50.644L14.165,30.639L26.77,30.639C36.814,30.639 35.645,35.403 33.785,40.644C31.93,45.882 29.726,50.644 19.688,50.644ZM130.706,50.644L121.464,50.644L121.811,47.144L114.907,47.144L112.779,50.644L103.53,50.644L118.741,30.639L129.669,30.639L130.706,50.644ZM139.905,50.644L131.781,50.644L138.869,30.639L148.58,30.639L149.817,42.968L149.91,42.968L154.278,30.639L162.403,30.639L155.315,50.644L145.785,50.644L144.378,38.289L144.284,38.289L139.905,50.644ZM69.619,47.505C72.287,47.505 73.075,46.05 74.996,40.643C76.909,35.238 77.147,33.777 74.486,33.777C71.821,33.777 71.024,35.237 69.111,40.643C67.195,46.05 66.958,47.505 69.619,47.505ZM44.509,47.505C47.169,47.505 47.966,46.05 49.88,40.643C51.795,35.238 52.032,33.777 49.372,33.777C46.712,33.777 45.916,35.237 44.001,40.643C42.087,46.05 41.85,47.505 44.509,47.505ZM17.096,46.89L18.824,46.89C22.188,46.89 22.899,46.05 24.818,40.643C26.736,35.238 26.609,34.391 23.246,34.391L21.524,34.391L17.096,46.89ZM122.801,34.731L122.708,34.731L117.32,43.219L122.174,43.219L122.801,34.731Z" style="fill:white;fill-rule:nonzero;"/>
    </g>
</svg>
